X:1
T:Tuohinen Sormus  (Birch bark ring)
M:2/4
L:1/16
Q:1/4=80
S:arr. Eira Mattsson (Washington DC Finlandia Foundation) ~1976
R:jenkka
B:T
K:Em
|: "Em" B2BG E2EG | "B7" F2F^D B,4 | F2B,2 F2GF |
[1 E^DEF "B7" GFGA :|[2 E2E2 E2Be | !
|: "Am" d2dc A2Ac | "Em" B2BG E3 E | "B7" B,^C^DE FAGF |
[1 "Em" EFGA B2Be :|[2 "Em" E2E2 E4 ||
